X: 21232
T: Keel Row, The
R: strathspey
M: 4/4
K: Dmajor
|:a>g|f2 d>f g2 e>g|f2 d>f e>c A2|f2 d>f g2 e>g|f>de>c d2:|
|:f<a|f>af>a b2 a>g|f2 e>d f>d A2|f>af>a b2 a>g|f2 e2 d2:|

